X: 23129
T: Lavin's Favourite
R: reel
M: 4/4
K: Dmajor
|:A2 FB ABdf|edfe fddB|A2 FB ABdB|1 AFEG FDdB:|2 AFEG FDDE||
|:FAdA BAdA|(3Bcd ed cAAG|FAdA BAdB|1 AFEG FDDE:|2 AFEG FDD2||

